packages/astro-components-stencil/src/icons/tablet-mac.svg

<svg width="24" height="24" viewBox="0 0 24 24" fill="none" xmlns="http://www.w3.org/2000/svg">
<path fill-rule="evenodd" clip-rule="evenodd" d="M19.5 0H5.5C4.12 0 3 1.12 3 2.5V21.5C3 22.88 4.12 24 5.5 24H19.5C20.88 24 22 22.88 22 21.5V2.5C22 1.12 20.88 0 19.5 0ZM12.5 23C11.67 23 11 22.33 11 21.5C11 20.67 11.67 20 12.5 20C13.33 20 14 20.67 14 21.5C14 22.33 13.33 23 12.5 23ZM5 19H20V3H5V19Z" fill="black"/>
</svg>

<svg xmlns="http://www.w3.org/2000/svg" viewBox="0 0 24 24"><g xmlns="http://www.w3.org/2000/svg" id="tablet-mac" fill-rule="nonzero">
            <path d="M19.5 0h-14A2.5 2.5 0 003 2.5v19A2.5 2.5 0 005.5 24h14a2.5 2.5 0 002.5-2.5v-19A2.5 2.5 0 0019.5 0zm-7 23c-.83 0-1.5-.67-1.5-1.5s.67-1.5 1.5-1.5 1.5.67 1.5 1.5-.67 1.5-1.5 1.5zm7.5-4H5V3h15v16z"/>
        </g></svg>
